assets/emojis/SmilingFacewithSunglasses.svg

<svg width="135" height="126" viewBox="0 0 135 126" fill="none" xmlns="http://www.w3.org/2000/svg">
<circle cx="66.5976" cy="63.1494" r="62.3496" fill="#F9B42F"/>
<path opacity="0.3" fill-rule="evenodd" clip-rule="evenodd" d="M117.532 99.3217C106.211 110.913 90.4086 118.109 72.9257 118.109C38.491 118.109 10.5761 90.1937 10.5761 55.7589C10.5761 42.3633 14.8006 29.9543 21.9899 19.7915C11.0122 31.0306 4.24707 46.4024 4.24707 63.3543C4.24707 97.789 32.1619 125.704 66.5967 125.704C87.6357 125.704 106.241 115.283 117.532 99.3217Z" fill="#BC8417"/>
<path d="M41.3384 62.9528C43.9934 62.9528 46.1456 60.8005 46.1456 58.1456C46.1456 55.4906 43.9934 53.3384 41.3384 53.3384C38.6835 53.3384 36.5312 55.4906 36.5312 58.1456C36.5312 60.8005 38.6835 62.9528 41.3384 62.9528Z" fill="#2C2A46"/>
<path d="M91.9781 62.9523C94.633 62.9523 96.7853 60.8 96.7853 58.1451C96.7853 55.4901 94.633 53.3379 91.9781 53.3379C89.3232 53.3379 87.1709 55.4901 87.1709 58.1451C87.1709 60.8 89.3232 62.9523 91.9781 62.9523Z" fill="#2C2A46"/>
<path d="M66.9136 85.6362C59.5692 85.6362 53.2866 83.0877 51.2867 79.2828C51.0815 78.8871 51.033 78.4286 51.1512 77.9988C51.2693 77.569 51.5452 77.1996 51.9238 76.9644C52.1293 76.853 52.3548 76.7833 52.5873 76.7595C52.8198 76.7357 53.0547 76.7582 53.2785 76.8256C53.5023 76.8931 53.7105 77.0042 53.8911 77.1526C54.0717 77.3009 54.2211 77.4836 54.3307 77.69C55.4633 79.8668 60.2417 82.1675 66.8251 82.1675C73.4086 82.1675 78.4878 79.7783 79.4257 77.4599C79.6041 77.0234 79.9485 76.6757 80.3833 76.4931C80.8181 76.3106 81.3076 76.3082 81.7441 76.4866C82.1806 76.6649 82.5284 77.0094 82.7109 77.4442C82.8935 77.879 82.8958 78.3684 82.7175 78.805C81.0716 82.8046 74.5058 85.6362 66.9136 85.6362Z" fill="#2C2A46"/>
<path d="M60.3936 38.1683C30.9913 27.3607 0 35.1908 0 35.1908V44.6099C1.73208 44.7101 2.86294 47.3583 2.86294 47.3583C7.15734 63.5625 6.64201 77.4191 30.476 77.9202C55.8416 78.5071 58.2751 56.4481 61.8394 49.892L62.0398 49.6057C67.2504 44.1089 72.0601 49.6057 72.0601 49.6057C75.5386 56.1332 77.7001 78.2351 103.08 78.006C126.9 77.82 126.556 64.0063 131.051 47.8593C131.051 47.8593 132.253 45.2254 133.914 45.1539L134.028 35.7348C134.028 35.7348 103.094 27.5182 73.6061 37.9679C69.2647 38.9606 64.7631 39.0289 60.3936 38.1683Z" fill="#0A0F1A"/>
<path d="M87.062 39.4839C74.1788 42.4756 79.5754 55.23 81.1501 59.5244C82.7247 63.8188 86.8759 74.1111 102.708 74.7409C118.54 75.3708 123.779 65.7799 124.18 50.406C124.538 34.0443 99.9595 36.4348 87.062 39.4839Z" fill="#333333"/>
<path d="M10.0059 50.3208C10.192 65.6805 15.4026 75.3429 31.163 74.8992C46.9235 74.4554 51.2036 64.2777 52.8927 59.9403C54.5818 55.603 60.0501 43.0204 47.1668 39.8998C34.2836 36.7792 9.81985 34.0594 10.0059 50.3208Z" fill="#333333"/>
<path d="M103.996 37.2808L112.9 73.1534C110.429 74.0883 107.811 74.5731 105.17 74.5848L96.0371 37.7961C98.6781 37.4724 101.335 37.3004 103.996 37.2808Z" fill="#4D4D4D"/>
<path d="M92.5444 38.3398L101.534 74.556C100.124 74.4639 98.7227 74.2726 97.3398 73.9834L88.751 39.0556C89.9534 38.7979 91.2417 38.5546 92.5444 38.3398Z" fill="#4D4D4D"/>
<path d="M32.6653 37.6379L41.3972 72.7948C38.9958 73.8195 36.4518 74.4712 33.8534 74.7273L24.5918 37.7381C27.276 37.4892 29.9758 37.4557 32.6653 37.6379Z" fill="#4D4D4D"/>
<path d="M21.171 38.2686L30.2751 74.9141C28.9015 74.9198 27.529 74.8337 26.1668 74.6565L17.4062 39.3994C18.6245 38.9096 19.8845 38.5311 21.171 38.2686Z" fill="#4D4D4D"/>
</svg>

<svg xmlns="http://www.w3.org/2000/svg" width="135" height="126" fill="none" viewBox="0 0 135 126"><circle cx="66.598" cy="63.149" r="62.35" fill="#f9b42f"/><path fill="#bc8417" fill-rule="evenodd" d="M117.532 99.322c-11.321 11.591-27.123 18.787-44.606 18.787-34.435 0-62.35-27.915-62.35-62.35 0-13.396 4.225-25.805 11.414-35.967C11.012 31.03 4.247 46.402 4.247 63.354c0 34.435 27.915 62.35 62.35 62.35 21.039 0 39.644-10.421 50.935-26.382" clip-rule="evenodd" opacity=".3"/><path fill="#2c2a46" d="M41.338 62.953a4.807 4.807 0 1 0 0-9.615 4.807 4.807 0 0 0 0 9.615m50.64-.001a4.807 4.807 0 1 0 0-9.614 4.807 4.807 0 0 0 0 9.614M66.914 85.636c-7.345 0-13.627-2.548-15.627-6.353a1.77 1.77 0 0 1 .637-2.319 1.77 1.77 0 0 1 2.407.726c1.132 2.177 5.91 4.478 12.494 4.478s11.663-2.39 12.6-4.708a1.778 1.778 0 0 1 3.293 1.345c-1.646 4-8.212 6.831-15.804 6.831"/><path fill="#0a0f1a" d="M60.394 38.168C30.99 27.361 0 35.191 0 35.191v9.419c1.732.1 2.863 2.748 2.863 2.748C7.157 63.563 6.642 77.42 30.476 77.92c25.366.587 27.8-21.472 31.363-28.028l.2-.286c5.211-5.497 10.021 0 10.021 0 3.479 6.527 5.64 28.63 31.02 28.4 23.82-.186 23.476-14 27.971-30.147 0 0 1.202-2.634 2.863-2.705l.114-9.42s-30.934-8.216-60.422 2.234a31.75 31.75 0 0 1-13.212.2"/><path fill="#333" d="M87.062 39.484c-12.883 2.992-7.487 15.746-5.912 20.04 1.575 4.295 5.726 14.587 21.558 15.217s21.071-8.961 21.472-24.335c.358-16.362-24.22-13.971-37.118-10.922M10.006 50.32c.186 15.36 5.397 25.023 21.157 24.58 15.76-.445 20.04-10.622 21.73-14.96 1.689-4.337 7.157-16.92-5.726-20.04S9.82 34.06 10.006 50.32"/><path fill="#4d4d4d" d="m103.996 37.28 8.904 35.873a22.1 22.1 0 0 1-7.73 1.432l-9.133-36.789a70 70 0 0 1 7.959-.515M92.544 38.34l8.99 36.216a30 30 0 0 1-4.194-.573l-8.59-34.927a82 82 0 0 1 3.793-.716m-59.878-.702 8.732 35.157a25.6 25.6 0 0 1-7.544 1.932l-9.261-36.989a50.5 50.5 0 0 1 8.073-.1m-11.494.631 9.104 36.645a31 31 0 0 1-4.108-.258L17.407 39.4a22 22 0 0 1 3.764-1.13"/></svg>
